src/assets/icons/social/telegram.svg

<svg xmlns="http://www.w3.org/2000/svg" viewBox="0 0 24 24" fill="currentColor"><path d="M22 12C22 17.5228 17.5228 22 12 22C6.47715 22 2 17.5228 2 12C2 6.47715 6.47715 2 12 2C17.5228 2 22 6.47715 22 12ZM12.3584 9.38246C11.3857 9.78702 9.4418 10.6244 6.5266 11.8945C6.05321 12.0827 5.80524 12.2669 5.78266 12.4469C5.74451 12.7513 6.12561 12.8711 6.64458 13.0343C6.71517 13.0565 6.78832 13.0795 6.8633 13.1039C7.37388 13.2698 8.06071 13.464 8.41776 13.4717C8.74164 13.4787 9.10313 13.3452 9.50222 13.0711C12.226 11.2325 13.632 10.3032 13.7203 10.2832C13.7826 10.269 13.8689 10.2513 13.9273 10.3032C13.9858 10.3552 13.98 10.4536 13.9739 10.48C13.9361 10.641 12.4401 12.0318 11.666 12.7515C11.4351 12.9661 11.2101 13.1853 10.9833 13.4039C10.509 13.8611 10.1533 14.204 11.003 14.764C11.8644 15.3317 12.7323 15.8982 13.5724 16.4971C13.9867 16.7925 14.359 17.0579 14.8188 17.0156C15.0861 16.991 15.3621 16.7397 15.5022 15.9903C15.8335 14.2193 16.4847 10.3821 16.6352 8.80083C16.6484 8.6623 16.6318 8.485 16.6185 8.40717C16.6052 8.32934 16.5773 8.21844 16.4762 8.13635C16.3563 8.03913 16.1714 8.01863 16.0887 8.02009C15.7125 8.02672 15.1355 8.22737 12.3584 9.38246Z"></path></svg>

<svg xmlns="http://www.w3.org/2000/svg" fill="currentColor" viewBox="0 0 24 24"><path d="M22 12c0 5.523-4.477 10-10 10S2 17.523 2 12 6.477 2 12 2s10 4.477 10 10m-9.642-2.618q-1.458.607-5.831 2.513-.711.282-.744.552c-.038.304.343.424.862.587l.218.07c.51.166 1.198.36 1.555.368q.486.01 1.084-.4 4.086-2.76 4.218-2.789c.063-.014.149-.032.207.02.059.052.053.15.047.177-.038.161-1.534 1.552-2.308 2.271q-.344.324-.683.653c-.474.457-.83.8.02 1.36.861.568 1.73 1.134 2.57 1.733.414.296.786.56 1.246.519.267-.025.543-.276.683-1.026.332-1.77.983-5.608 1.133-7.19a1.8 1.8 0 0 0-.017-.393.42.42 0 0 0-.142-.27c-.12-.098-.305-.118-.387-.117-.376.007-.953.207-3.73 1.362"/></svg>
